public/assets/img/icon/service-icon_2-6.svg

<svg width="56" height="56" viewBox="0 0 56 56" fill="none" xmlns="http://www.w3.org/2000/svg">
<path d="M55.0968 50.5806H43.7568L49.5519 29.9754L55.5005 27.001C55.9467 26.7779 56.1274 26.2351 55.9043 25.7889L54.0978 22.176C53.9849 21.9511 53.7835 21.7831 53.5423 21.7126C53.2984 21.6395 53.041 21.6756 52.8252 21.8057L44.0079 27.0968H33.4194C32.9199 27.0968 32.5161 27.5005 32.5161 28V31.6129C32.5161 32.1124 32.9199 32.5161 33.4194 32.5161H42.4444L37.3637 50.5806H36.129C36.129 48.8519 34.9088 47.4031 33.2857 47.0499L31.5985 37.7738C31.5831 37.6889 31.556 37.6076 31.5181 37.5308L26.2658 27.0263L26.3579 26.7481C26.4564 26.4537 26.5449 26.1565 26.6343 25.8594C27.1212 26.0734 27.6477 26.1935 28.1942 26.1935C28.9258 26.1935 29.6403 25.9885 30.2599 25.601L35.9394 22.0523C36.717 21.5645 37.1822 20.7254 37.1822 19.8086C37.1822 18.349 35.9954 17.1613 34.5348 17.1613C33.7237 17.1613 32.9379 17.3997 32.2632 17.8495L28.4995 20.3587L27.8988 19.1574C27.9657 18.3192 28 17.4765 28 16.632C28 15.7279 27.6956 14.8725 27.1446 14.1734C29.7288 13.3786 31.6129 10.9697 31.6129 8.12903V6.32258C31.6129 2.83703 28.7759 0 25.2903 0C21.8048 0 18.9677 2.83703 18.9677 6.32258V8.12903C18.9677 9.91019 19.7111 11.5188 20.9006 12.6695C19.9459 12.7292 19.0255 13.076 18.2885 13.6902L13.8726 17.3699C13.5881 17.6084 13.477 17.9968 13.5945 18.3499L16.8488 28.112C16.8542 28.1283 16.8623 28.1418 16.8677 28.1572L14.6151 37.1677C11.7275 37.8036 8.96271 38.8694 6.39213 40.3399L4.06813 41.6676C3.78632 41.8284 3.6129 42.1274 3.6129 42.4516V47.871C3.6129 48.3705 4.01665 48.7742 4.51613 48.7742H5.41935C7.16439 48.7742 8.624 47.5314 8.96 45.8848L19.1863 43.3277C19.4862 43.2537 19.7274 43.0306 19.824 42.7379L22.0215 36.1471L25.2939 40.0743C25.3617 42.9655 26.3155 45.8152 28 48.1672V50.5806H0.903226C0.403742 50.5806 0 50.9844 0 51.4839V55.0968C0 55.5963 0.403742 56 0.903226 56H55.0968C55.5963 56 56 55.5963 56 55.0968V51.4839C56 50.9844 55.5963 50.5806 55.0968 50.5806ZM40.8637 54.1935H38.2245L44.3258 32.4999C44.4414 32.4908 44.5579 32.4728 44.6618 32.4204L47.3679 31.0674L40.8637 54.1935ZM34.3226 28.9032H44.2581C44.4225 28.9032 44.5823 28.859 44.7232 28.7741L52.9191 23.8569L53.8846 25.7898L44.0449 30.7097H34.3226V28.9032ZM27.9178 22.5508C28.1689 22.6168 28.4354 22.5734 28.6512 22.4289L33.2658 19.3525C33.6434 19.1005 34.0814 18.9677 34.5348 18.9677C34.9982 18.9677 35.3757 19.3453 35.3757 19.8086C35.3757 20.0995 35.2276 20.3659 34.9801 20.5213L29.3015 24.0701C28.6413 24.481 27.7787 24.4657 27.1185 24.0782C27.2621 23.4794 27.3849 22.8769 27.4933 22.2717C27.6098 22.3991 27.7471 22.5048 27.9178 22.5508ZM25.2903 12.6452C24.7321 12.6452 24.2028 12.5305 23.7088 12.3444L25.1097 10.4774C25.2271 10.3212 25.2903 10.1315 25.2903 9.93548V7.22581H29.8065V8.12903C29.8065 10.6192 27.7805 12.6452 25.2903 12.6452ZM20.7742 8.12903V6.32258C20.7742 3.83239 22.8001 1.80645 25.2903 1.80645C27.4707 1.80645 29.2952 3.3609 29.7152 5.41935H24.3871C23.8876 5.41935 23.4839 5.8231 23.4839 6.32258V9.63471L22.1733 11.3825C21.3143 10.5596 20.7742 9.4089 20.7742 8.12903ZM25.2903 14.4516C25.2903 14.6919 25.3852 14.9213 25.555 15.0902C25.9668 15.5021 26.1935 16.0503 26.1935 16.632C26.1935 19.8529 25.6823 23.0368 24.6707 26.096L21.4977 25.6426C21.4471 25.3788 21.4046 25.1133 21.3315 24.855L20.0263 20.2892L22.829 18.6083C23.7901 18.0311 24.3871 16.9761 24.3871 15.8552C24.3871 15.2934 24.229 14.7723 23.9743 14.3116C24.3988 14.4019 24.8387 14.4516 25.2903 14.4516ZM15.503 18.3635L19.4455 15.0775C19.9297 14.6738 20.5448 14.4516 21.177 14.4516C21.9511 14.4516 22.5806 15.0812 22.5806 15.8552C22.5806 16.3457 22.3196 16.8072 21.8987 17.0592L18.5026 19.0969C18.1521 19.3065 17.9868 19.7265 18.0988 20.1194L19.5937 25.3508C19.777 25.9948 19.871 26.6605 19.871 27.3289C19.871 27.6992 19.5702 28 19.1999 28C18.9108 28 18.6543 27.8157 18.5622 27.5403L15.503 18.3635ZM5.41935 46.9677V42.9755L5.89174 42.7063L7.20774 45.3392C7.11742 46.2506 6.35419 46.9677 5.41935 46.9677ZM27.0968 39.7419C27.0968 39.5306 27.0227 39.3255 26.8881 39.163L22.4 33.777L20.6234 31.1116L19.1204 32.1133L20.6821 34.4554L18.2686 41.6947L8.61406 44.109L7.46697 41.8148C9.98697 40.3986 12.6975 39.387 15.5328 38.8197C15.8751 38.752 16.147 38.4919 16.231 38.1532L18.3554 29.6529C18.6218 29.7505 18.9045 29.8065 19.1999 29.8065C20.5105 29.8065 21.5754 28.7804 21.6612 27.4915L24.6942 27.925L29.8444 38.2245L31.4341 46.9677H29.3765C27.9088 44.8578 27.0968 42.3134 27.0968 39.7419ZM29.8065 48.7742H32.5161C33.5124 48.7742 34.3226 49.5844 34.3226 50.5806H29.8065V48.7742ZM1.80645 52.3871H36.8561L36.3485 54.1935H1.80645V52.3871ZM54.1935 54.1935H42.7406L43.2483 52.3871H54.1935V54.1935Z" fill="#F41E1E"/>
</svg>

<?xml version="1.0" encoding="UTF-8"?>
<svg id="Camada_1" data-name="Camada 1" xmlns="http://www.w3.org/2000/svg" viewBox="0 0 56 56">
  <defs>
    <style>
      .cls-1 {
        fill: #f1c40f;
      }
    </style>
  </defs>
  <path class="cls-1" d="M55.1,50.58h-11.34l5.8-20.61,5.95-2.97c.45-.22,.63-.77,.4-1.21l-1.81-3.61c-.11-.22-.31-.39-.56-.46-.24-.07-.5-.04-.72,.09l-8.82,5.29h-10.59c-.5,0-.9,.4-.9,.9v3.61c0,.5,.4,.9,.9,.9h9.03l-5.08,18.06h-1.23c0-1.73-1.22-3.18-2.84-3.53l-1.69-9.28c-.02-.08-.04-.17-.08-.24l-5.25-10.5,.09-.28c.1-.29,.19-.59,.28-.89,.49,.21,1.01,.33,1.56,.33,.73,0,1.45-.2,2.07-.59l5.68-3.55c.78-.49,1.24-1.33,1.24-2.24,0-1.46-1.19-2.65-2.65-2.65-.81,0-1.6,.24-2.27,.69l-3.76,2.51-.6-1.2c.07-.84,.1-1.68,.1-2.53,0-.9-.3-1.76-.86-2.46,2.58-.79,4.47-3.2,4.47-6.04v-1.81c0-3.49-2.84-6.32-6.32-6.32s-6.32,2.84-6.32,6.32v1.81c0,1.78,.74,3.39,1.93,4.54-.95,.06-1.88,.41-2.61,1.02l-4.42,3.68c-.28,.24-.4,.63-.28,.98l3.25,9.76s.01,.03,.02,.05l-2.25,9.01c-2.89,.64-5.65,1.7-8.22,3.17l-2.32,1.33c-.28,.16-.46,.46-.46,.78v5.42c0,.5,.4,.9,.9,.9h.9c1.75,0,3.2-1.24,3.54-2.89l10.23-2.56c.3-.07,.54-.3,.64-.59l2.2-6.59,3.27,3.93c.07,2.89,1.02,5.74,2.71,8.09v2.41H.9c-.5,0-.9,.4-.9,.9v3.61c0,.5,.4,.9,.9,.9H55.1c.5,0,.9-.4,.9-.9v-3.61c0-.5-.4-.9-.9-.9Zm-14.23,3.61h-2.64l6.1-21.69c.12,0,.23-.03,.34-.08l2.71-1.35-6.5,23.13Zm-6.54-25.29h9.94c.16,0,.32-.04,.47-.13l8.2-4.92,.97,1.93-9.84,4.92h-9.72v-1.81Zm-6.4-6.35c.25,.07,.52,.02,.73-.12l4.61-3.08c.38-.25,.82-.38,1.27-.38s.84,.38,.84,.84c0,.29-.15,.56-.4,.71l-5.68,3.55c-.66,.41-1.52,.4-2.18,0,.14-.6,.27-1.2,.37-1.81,.12,.13,.25,.23,.42,.28Zm-2.63-9.91c-.56,0-1.09-.11-1.58-.3l1.4-1.87c.12-.16,.18-.35,.18-.54v-2.71h4.52v.9c0,2.49-2.03,4.52-4.52,4.52Zm-4.52-4.52v-1.81c0-2.49,2.03-4.52,4.52-4.52,2.18,0,4,1.55,4.42,3.61h-5.33c-.5,0-.9,.4-.9,.9v3.31l-1.31,1.75c-.86-.82-1.4-1.97-1.4-3.25Zm4.52,6.32c0,.24,.09,.47,.26,.64,.41,.41,.64,.96,.64,1.54,0,3.22-.51,6.4-1.52,9.46l-3.17-.45c-.05-.26-.09-.53-.17-.79l-1.31-4.57,2.8-1.68c.96-.58,1.56-1.63,1.56-2.75,0-.56-.16-1.08-.41-1.54,.42,.09,.86,.14,1.32,.14Zm-9.79,3.91l3.94-3.29c.48-.4,1.1-.63,1.73-.63,.77,0,1.4,.63,1.4,1.4,0,.49-.26,.95-.68,1.2l-3.4,2.04c-.35,.21-.52,.63-.4,1.02l1.49,5.23c.18,.64,.28,1.31,.28,1.98,0,.37-.3,.67-.67,.67-.29,0-.55-.18-.64-.46l-3.06-9.18ZM5.42,46.97v-3.99l.47-.27,1.32,2.63c-.09,.91-.85,1.63-1.79,1.63Zm21.68-7.23c0-.21-.07-.42-.21-.58l-4.49-5.39-1.78-2.67-1.5,1,1.56,2.34-2.41,7.24-9.65,2.41-1.15-2.29c2.52-1.42,5.23-2.43,8.07-3,.34-.07,.61-.33,.7-.67l2.12-8.5c.27,.1,.55,.15,.84,.15,1.31,0,2.38-1.03,2.46-2.31l3.03,.43,5.15,10.3,1.59,8.74h-2.06c-1.47-2.11-2.28-4.65-2.28-7.23Zm2.71,9.03h2.71c1,0,1.81,.81,1.81,1.81h-4.52v-1.81ZM1.81,52.39H36.86l-.51,1.81H1.81v-1.81Zm52.39,1.81h-11.45l.51-1.81h10.95v1.81Z"/>
</svg>
